; ═══════════════════════════════════════════
; GCode generated by gcode_generator.py
; Date      : 2026-05-26 10:19:02
; Plate     : 20.0 x 20.0 mm
; Pattern   : Serpentine (X)
; Feedrate  : 100.0 mm/min
; ═══════════════════════════════════════════
G90          ; Absolute positioning
G21          ; Units in mm
F100.0  ; Set feedrate
G0 X0 Y0     ; Move to origin

; ─── Serpentine X-direction ───
G0 X0.0000 Y0.0000  ; Line 1 start
G1 X20.0000 Y0.0000   ; Line 1 end
G0 X20.0000 Y2.0000  ; Line 2 start
G1 X0.0000 Y2.0000   ; Line 2 end
G0 X0.0000 Y4.0000  ; Line 3 start
G1 X20.0000 Y4.0000   ; Line 3 end
G0 X20.0000 Y6.0000  ; Line 4 start
G1 X0.0000 Y6.0000   ; Line 4 end
G0 X0.0000 Y8.0000  ; Line 5 start
G1 X20.0000 Y8.0000   ; Line 5 end
G0 X20.0000 Y10.0000  ; Line 6 start
G1 X0.0000 Y10.0000   ; Line 6 end
G0 X0.0000 Y12.0000  ; Line 7 start
G1 X20.0000 Y12.0000   ; Line 7 end
G0 X20.0000 Y14.0000  ; Line 8 start
G1 X0.0000 Y14.0000   ; Line 8 end
G0 X0.0000 Y16.0000  ; Line 9 start
G1 X20.0000 Y16.0000   ; Line 9 end
G0 X20.0000 Y18.0000  ; Line 10 start
G1 X0.0000 Y18.0000   ; Line 10 end
G0 X0.0000 Y20.0000  ; Line 11 start
G1 X20.0000 Y20.0000   ; Line 11 end

; ─── End of program ───
G0 X0 Y0     ; Return to origin
M30          ; Program end